src/assets/outline/Wallet2.svg

<?xml version="1.0" encoding="UTF-8"?>
<svg width="24" height="24" viewBox="0 0 24 24" xmlns="http://www.w3.org/2000/svg">
 <path d="m13 9.75h-6c-0.41 0-0.75-0.34-0.75-0.75s0.34-0.75 0.75-0.75h6c0.41 0 0.75 0.34 0.75 0.75s-0.34 0.75-0.75 0.75z"/>
 <path d="m19.04 14.8c-1.51 0-2.79-1.12-2.91-2.56-0.08-0.83 0.22-1.64 0.82-2.23 0.5-0.51995 1.21-0.80995 1.96-0.80995h2.09c0.99 0.03 1.75 0.80995 1.75 1.77v2.0601c0 0.96-0.76 1.7399-1.72 1.7699h-1.99zm1.93-4.0999h-2.05c-0.35 0-0.67 0.1299-0.9 0.3699-0.29 0.28-0.43 0.66-0.39 1.04 0.05 0.66 0.69 1.19 1.41 1.19h1.96c0.13 0 0.25-0.1199 0.25-0.2699v-2.0601c0-0.15-0.12-0.2599-0.28-0.2699z"/>
 <path d="m16 21.25h-9c-3.44 0-5.75-2.31-5.75-5.75v-7c0-3.08 1.9-5.31 4.85-5.68 0.27-0.04 0.58002-0.07001 0.90002-0.07001h9c0.24 0 0.55 0.01 0.87 0.06 2.95 0.34 4.88 2.58 4.88 5.69v1.45c0 0.40999-0.34 0.74999-0.75 0.74999h-2.08c-0.35 0-0.67 0.13-0.9 0.37l-0.01 0.01c-0.28 0.27-0.41 0.64-0.38 1.02 0.05 0.66 0.69 1.19 1.41 1.19h1.96c0.41 0 0.75 0.34 0.75 0.75v1.45c0 3.45-2.31 5.76-5.75 5.76zm-9-17c-0.24 0-0.47001 0.01999-0.70001 0.04999-2.2 0.28-3.55 1.88-3.55 4.2v7c0 2.58 1.67 4.25 4.25 4.25h9c2.58 0 4.25-1.67 4.25-4.25v-0.7h-1.21c-1.51 0-2.79-1.12-2.91-2.56-0.08-0.82 0.22-1.64 0.82-2.22 0.52-0.52998 1.22-0.81999 1.97-0.81999h1.33v-0.70001c0-2.34-1.37-3.95-3.59-4.21-0.24-0.04-0.45-0.03998-0.66-0.03998h-9z"/>
</svg>

<svg width="24" height="24" viewBox="0 0 24 24"  xmlns="http://www.w3.org/2000/svg">
<path d="M13 9.75H7C6.59 9.75 6.25 9.41 6.25 9C6.25 8.59 6.59 8.25 7 8.25H13C13.41 8.25 13.75 8.59 13.75 9C13.75 9.41 13.41 9.75 13 9.75Z" />
<path d="M19.0399 14.7999C17.5299 14.7999 16.2499 13.6799 16.1299 12.2399C16.0499 11.4099 16.3499 10.5999 16.9499 10.0099C17.4499 9.48995 18.1599 9.19995 18.9099 9.19995H20.9999C21.9899 9.22995 22.7499 10.0099 22.7499 10.9699V13.03C22.7499 13.99 21.9899 14.7699 21.0299 14.7999H19.0399ZM20.9699 10.7H18.9199C18.5699 10.7 18.2499 10.8299 18.0199 11.0699C17.7299 11.3499 17.5899 11.7299 17.6299 12.1099C17.6799 12.7699 18.3199 13.2999 19.0399 13.2999H20.9999C21.1299 13.2999 21.2499 13.18 21.2499 13.03V10.9699C21.2499 10.8199 21.1299 10.71 20.9699 10.7Z" />
<path d="M16 21.25H7C3.56 21.25 1.25 18.94 1.25 15.5V8.5C1.25 5.42 3.14998 3.19001 6.09998 2.82001C6.36998 2.78001 6.68 2.75 7 2.75H16C16.24 2.75 16.55 2.76 16.87 2.81C19.82 3.15 21.75 5.39 21.75 8.5V9.95001C21.75 10.36 21.41 10.7 21 10.7H18.92C18.57 10.7 18.25 10.83 18.02 11.07L18.01 11.08C17.73 11.35 17.6 11.72 17.63 12.1C17.68 12.76 18.32 13.29 19.04 13.29H21C21.41 13.29 21.75 13.63 21.75 14.04V15.49C21.75 18.94 19.44 21.25 16 21.25ZM7 4.25C6.76 4.25 6.52999 4.26999 6.29999 4.29999C4.09999 4.57999 2.75 6.18 2.75 8.5V15.5C2.75 18.08 4.42 19.75 7 19.75H16C18.58 19.75 20.25 18.08 20.25 15.5V14.8H19.04C17.53 14.8 16.25 13.68 16.13 12.24C16.05 11.42 16.35 10.6 16.95 10.02C17.47 9.49002 18.17 9.20001 18.92 9.20001H20.25V8.5C20.25 6.16 18.88 4.54998 16.66 4.28998C16.42 4.24998 16.21 4.25 16 4.25H7Z" />
</svg>
